image/icon-truck.svg

<svg width="46" height="32" viewBox="0 0 46 32" fill="none" xmlns="http://www.w3.org/2000/svg">
<path d="M30.2868 27.2429H14.8098C14.6026 28.5509 13.9355 29.742 12.9285 30.6021C11.9215 31.4621 10.6406 31.9346 9.31633 31.9346C7.99203 31.9346 6.71117 31.4621 5.70415 30.6021C4.69713 29.742 4.03003 28.5509 3.82283 27.2429H1.88582C1.391 27.2397 0.91765 27.0404 0.569536 26.6887C0.221422 26.337 0.0269624 25.8618 0.0288259 25.3669V1.87695C0.0266969 1.38195 0.221028 0.906335 0.56917 0.554443C0.917313 0.202551 1.39082 0.00317363 1.88582 0H27.4368C27.9318 0.00317353 28.4051 0.202522 28.7531 0.554443C29.1011 0.906364 29.2952 1.38204 29.2928 1.87695V3.78198H36.4138C36.4942 3.78164 36.5742 3.79208 36.6518 3.81299C38.9518 4.01299 40.1088 5.2129 41.3288 7.2749L44.8878 13.3689C44.9727 13.5136 45.0176 13.6782 45.0178 13.8459V26.304C45.0189 26.5515 44.9216 26.7892 44.7475 26.9651C44.5733 27.141 44.3364 27.2406 44.0888 27.2419H41.2748C41.0676 28.5499 40.4005 29.741 39.3935 30.6011C38.3865 31.4611 37.1056 31.9336 35.7813 31.9336C34.457 31.9336 33.1762 31.4611 32.1691 30.6011C31.1621 29.741 30.495 28.5499 30.2878 27.2419L30.2868 27.2429ZM32.0648 26.304C32.0727 27.0369 32.2973 27.7511 32.7102 28.3567C33.1231 28.9623 33.706 29.4322 34.3854 29.7073C35.0649 29.9824 35.8105 30.0503 36.5284 29.9026C37.2464 29.7548 37.9046 29.398 38.4202 28.877C38.9358 28.3559 39.2857 27.6941 39.426 26.9746C39.5662 26.2551 39.4905 25.5103 39.2083 24.8337C38.9262 24.1572 38.4502 23.5794 37.8403 23.1729C37.2304 22.7663 36.5138 22.5491 35.7808 22.5488C34.7905 22.5552 33.8431 22.9543 33.1464 23.6582C32.4498 24.3621 32.0608 25.3136 32.0648 26.304ZM5.60085 26.304C5.60874 27.0369 5.83327 27.7511 6.2462 28.3567C6.65914 28.9623 7.24201 29.4322 7.92143 29.7073C8.60086 29.9824 9.34648 30.0503 10.0644 29.9026C10.7824 29.7548 11.4406 29.398 11.9562 28.877C12.4718 28.3559 12.8217 27.6941 12.962 26.9746C13.1022 26.2551 13.0265 25.5103 12.7443 24.8337C12.4622 24.1572 11.9862 23.5794 11.3763 23.1729C10.7664 22.7663 10.0498 22.5491 9.31682 22.5488C8.3263 22.5549 7.37866 22.9537 6.68181 23.6577C5.98496 24.3617 5.59585 25.3134 5.59984 26.304H5.60085ZM41.2728 25.366H43.1588V19.7478H40.4228C40.3002 19.7473 40.1789 19.7227 40.0659 19.6753C39.9528 19.6279 39.8502 19.5585 39.7639 19.4714C39.6776 19.3843 39.6094 19.281 39.563 19.1675C39.5167 19.054 39.4932 18.9324 39.4938 18.8098V16.9629C39.4935 16.2423 39.7691 15.5488 40.2638 15.0249H33.8848C33.8076 15.0248 33.7307 15.015 33.6558 14.9958C32.9511 14.933 32.2956 14.6081 31.819 14.0852C31.3423 13.5623 31.0793 12.8794 31.0818 12.1719V7.47192C31.0812 7.34927 31.1047 7.22758 31.151 7.11401C31.1973 7.00044 31.2656 6.89725 31.3519 6.81006C31.4381 6.72286 31.5407 6.6535 31.6538 6.60596C31.7669 6.55841 31.8882 6.53361 32.0108 6.53296H38.4938C38.1495 6.21428 37.7421 5.97123 37.2981 5.81982C36.854 5.66842 36.3831 5.61187 35.9158 5.65381H29.2928V25.3618H30.2868C30.494 24.0538 31.1611 22.8627 32.1682 22.0027C33.1752 21.1426 34.456 20.6702 35.7803 20.6702C37.1046 20.6702 38.3855 21.1426 39.3925 22.0027C40.3995 22.8627 41.0666 24.0538 41.2738 25.3618L41.2728 25.366ZM14.8088 25.366H27.4358V1.87598H1.88582V25.366H3.82283C4.03003 24.058 4.69713 22.8666 5.70415 22.0066C6.71117 21.1465 7.99203 20.6741 9.31633 20.6741C10.6406 20.6741 11.9215 21.1465 12.9285 22.0066C13.9355 22.8666 14.6026 24.058 14.8098 25.366H14.8088ZM41.3508 16.9658V17.875H43.1588V16.0278H42.2798C42.033 16.0294 41.7968 16.1288 41.6229 16.304C41.449 16.4792 41.3516 16.716 41.3518 16.9629L41.3508 16.9658ZM32.9378 12.1738C32.9368 12.4263 33.0359 12.6691 33.2134 12.8486C33.3909 13.0282 33.6324 13.13 33.8848 13.1318C33.9487 13.1316 34.0124 13.1384 34.0748 13.1519H42.5998L39.8339 8.41602H32.9338L32.9378 12.1738ZM33.0308 26.3059C33.0279 25.5734 33.3157 24.8695 33.8311 24.3489C34.3464 23.8283 35.0473 23.5333 35.7798 23.5288C36.0286 23.5288 36.2672 23.6278 36.4431 23.8037C36.619 23.9796 36.7178 24.218 36.7178 24.4668C36.7178 24.7156 36.619 24.9542 36.4431 25.1301C36.2672 25.306 36.0286 25.4048 35.7798 25.4048C35.6015 25.4032 35.4267 25.4548 35.2777 25.5527C35.1286 25.6507 35.012 25.7905 34.9427 25.9548C34.8733 26.1191 34.8544 26.3005 34.8882 26.4756C34.922 26.6507 35.0071 26.8118 35.1326 26.9385C35.2582 27.0651 35.4185 27.1516 35.5933 27.187C35.7681 27.2224 35.9494 27.2051 36.1144 27.1372C36.2793 27.0693 36.4203 26.9538 36.5196 26.8057C36.6188 26.6575 36.6718 26.4833 36.6718 26.3049C36.6718 26.0587 36.7696 25.8226 36.9438 25.6484C37.1179 25.4743 37.3541 25.3765 37.6003 25.3765C37.8466 25.3765 38.0828 25.4743 38.2569 25.6484C38.431 25.8226 38.5288 26.0587 38.5288 26.3049C38.5288 27.0343 38.2391 27.7338 37.7234 28.2495C37.2077 28.7652 36.5082 29.0549 35.7788 29.0549C35.0495 29.0549 34.35 28.7652 33.8343 28.2495C33.3186 27.7338 33.0288 27.0343 33.0288 26.3049L33.0308 26.3059ZM6.56682 26.3059C6.56389 25.5734 6.85171 24.8695 7.36708 24.3489C7.88245 23.8283 8.58329 23.5333 9.31584 23.5288C9.56462 23.5288 9.8032 23.6278 9.97911 23.8037C10.155 23.9796 10.2538 24.218 10.2538 24.4668C10.2538 24.7156 10.155 24.9542 9.97911 25.1301C9.8032 25.306 9.56462 25.4048 9.31584 25.4048C9.13751 25.4032 8.9627 25.4548 8.81365 25.5527C8.66459 25.6507 8.548 25.7905 8.47865 25.9548C8.40931 26.1191 8.39033 26.3005 8.42415 26.4756C8.45797 26.6507 8.54305 26.8118 8.6686 26.9385C8.79414 27.0651 8.95449 27.1516 9.12929 27.187C9.30409 27.2224 9.48546 27.2051 9.65038 27.1372C9.8153 27.0693 9.95634 26.9538 10.0556 26.8057C10.1548 26.6575 10.2078 26.4833 10.2078 26.3049C10.2078 26.0587 10.3057 25.8226 10.4798 25.6484C10.6539 25.4743 10.8901 25.3765 11.1363 25.3765C11.3826 25.3765 11.6188 25.4743 11.7929 25.6484C11.967 25.8226 12.0648 26.0587 12.0648 26.3049C12.0648 27.0343 11.7751 27.7338 11.2594 28.2495C10.7437 28.7652 10.0442 29.0549 9.31484 29.0549C8.58549 29.0549 7.88601 28.7652 7.37029 28.2495C6.85456 27.7338 6.56484 27.0343 6.56484 26.3049L6.56682 26.3059ZM4.70885 5.65991C4.46008 5.65991 4.22149 5.56116 4.04558 5.38525C3.86967 5.20934 3.77083 4.9707 3.77083 4.72192C3.77083 4.47315 3.86967 4.2345 4.04558 4.05859C4.22149 3.88268 4.46008 3.78394 4.70885 3.78394H24.6088C24.8576 3.78394 25.0962 3.88268 25.2721 4.05859C25.448 4.2345 25.5468 4.47315 25.5468 4.72192C25.5468 4.9707 25.448 5.20934 25.2721 5.38525C25.0962 5.56116 24.8576 5.65991 24.6088 5.65991H4.70885Z" fill="#F16D7F"/>
</svg>

<svg width="46" height="32" fill="none" xmlns="http://www.w3.org/2000/svg"><path d="M30.287 27.243H14.81a5.562 5.562 0 0 1-10.987 0H1.886a1.869 1.869 0 0 1-1.857-1.876V1.877A1.869 1.869 0 0 1 1.886 0h25.55a1.868 1.868 0 0 1 1.857 1.877v1.905h7.12a.9.9 0 0 1 .239.031c2.3.2 3.457 1.4 4.677 3.462l3.559 6.094c.085.145.13.31.13.477v12.458a.934.934 0 0 1-.93.938h-2.813a5.562 5.562 0 0 1-10.987 0h-.001Zm1.778-.939a3.715 3.715 0 1 0 3.716-3.755 3.74 3.74 0 0 0-3.716 3.755Zm-26.464 0a3.715 3.715 0 1 0 3.716-3.755A3.74 3.74 0 0 0 5.6 26.304Zm35.672-.938h1.886v-5.618h-2.736a.932.932 0 0 1-.93-.938v-1.847c0-.72.276-1.414.77-1.938h-6.378a.927.927 0 0 1-.23-.03 2.824 2.824 0 0 1-2.573-2.823v-4.7a.936.936 0 0 1 .929-.939h6.483a3.354 3.354 0 0 0-2.578-.88h-6.623v19.709h.994a5.561 5.561 0 0 1 10.987 0l-.001.004Zm-26.464 0h12.627V1.876H1.886v23.49h1.937a5.562 5.562 0 0 1 10.987 0h-.001Zm26.542-8.4v.909h1.808v-1.847h-.88a.934.934 0 0 0-.927.935l-.001.003Zm-8.413-4.792a.955.955 0 0 0 .947.958c.064 0 .127.006.19.02H42.6l-2.766-4.736h-6.9l.004 3.758Zm.093 14.132a2.766 2.766 0 0 1 2.749-2.777.938.938 0 0 1 0 1.876.9.9 0 1 0 .892.9.928.928 0 0 1 1.857 0 2.75 2.75 0 1 1-5.5 0h.002Zm-26.464 0a2.766 2.766 0 0 1 2.749-2.777.938.938 0 0 1 0 1.876.9.9 0 1 0 .892.9.929.929 0 0 1 1.857 0 2.75 2.75 0 1 1-5.5 0h.002ZM4.709 5.66a.938.938 0 1 1 0-1.876h19.9a.938.938 0 1 1 0 1.876h-19.9Z" fill="#F16D7F"/></svg>
